X: 459
T: Wuge fangyang
L: 1/8
M: 2/4
K: F
c c c f/ [I:setbarnb 1]| 
d c d c | 
G2A A | 
d c G3/ A/ | 
G DC2 | 
F F F G | 
c c c f | 
d c f c | 
B A G F | 
C4 |]

@@@ Tune index: 9333
